X:1
T:Chinese Breakdown
M:4/4
L:1/4
Z: Jo Anne Rocke 10-18-2003
K:D
P:A
A2 | "D"dcBA | FF2A | "D"ddBA | "A"E3A | 
"A"ce/2c/2BA | cc2B | "A7"A/2A/2A/2A/2BA | "D"F3A |
"D"dcBA | FF2E | "D"D/2D/2D/2D/2EF | "G"G3A |
"A"eee/2f/2e/2d/2 | cc2B | "A7"A/2A/2A/2A/2Bc | "D"d2A2 ||
P:B
"D"fa/2f/2ed | ff2A | "D"fa/2f/2ed | "A"c3e | 
"A"aa2^g | =gg2e | "A7"ce/2c/2B/2c/2B | "D"A3=f |
"D"^fa/2f/2ed | ff2e | "D"d/2d/2d/2d/2ef | "G"g4 |
"A"eee/2f/2e/2d/2 | cc2B | "A7"AABc | "D"d2|]
